.local/share/icons/Gruvbox-Plus-Dark/actions/16/kt-speed-limits.svg

<svg xmlns="http://www.w3.org/2000/svg" width="16" height="16" viewBox="0 0 16 16">
 <defs>
  <style id="current-color-scheme" type="text/css">
   .ColorScheme-Text { color:#ebdbb2; } .ColorScheme-Highlight { color:#458588; }
  </style>
 </defs>
 <path style="fill:currentColor" class="ColorScheme-Text" d="M 8.7792969 1.9980469 C 8.7277409 1.9924975 8.6764838 2.007907 8.6367188 2.0429688 C 8.5969537 2.0780586 8.5733267 2.1286048 8.5683594 2.1835938 L 8.3417969 4.6699219 C 8.3314439 4.7843281 8.4108322 4.8873668 8.5175781 4.8984375 C 9.135936 4.9626474 9.731228 5.1414298 10.289062 5.4296875 C 10.315599 5.4434207 10.346059 5.4492187 10.375 5.4492188 C 10.396595 5.4492188 10.416689 5.4452635 10.4375 5.4375 C 10.486102 5.4193105 10.526475 5.3817511 10.548828 5.3320312 L 11.560547 3.0820312 C 11.607162 2.9784995 11.567331 2.8545756 11.470703 2.8046875 C 10.623376 2.3669058 9.7173436 2.0955248 8.7792969 1.9980469 z M 6.9160156 2.0351562 C 5.9824657 2.170891 5.0877876 2.4800573 4.2558594 2.953125 C 4.1611397 3.0069929 4.1255848 3.1327771 4.1757812 3.234375 L 5.2675781 5.4414062 C 5.3024542 5.5118942 5.3698839 5.5507813 5.4394531 5.5507812 C 5.4701462 5.5507812 5.5003293 5.5438236 5.5292969 5.5273438 C 6.0773274 5.2157676 6.6665261 5.0132343 7.28125 4.9238281 C 7.3874992 4.9083852 7.461671 4.8033829 7.4472656 4.6894531 L 7.1347656 2.2128906 C 7.1203603 2.0989889 7.0220034 2.0198255 6.9160156 2.0351562 z M 12.902344 3.8320312 C 12.851128 3.8377207 12.803955 3.8653779 12.771484 3.9082031 L 11.300781 5.8457031 C 11.26831 5.8885564 11.254458 5.943142 11.259766 5.9980469 C 11.265021 6.0529518 11.290104 6.1038063 11.330078 6.1386719 C 11.812958 6.5596094 12.218414 7.0612299 12.537109 7.6328125 C 12.573502 7.6980033 12.638986 7.734375 12.705078 7.734375 C 12.738987 7.734375 12.773498 7.7250894 12.804688 7.7050781 L 14.804688 6.4238281 C 14.848845 6.3954928 14.879977 6.3504346 14.892578 6.296875 C 14.905127 6.2433154 14.897551 6.1860936 14.871094 6.1386719 C 14.389208 5.2744593 13.774732 4.5132501 13.044922 3.8769531 C 13.004948 3.8421436 12.953769 3.8265099 12.902344 3.8320312 z M 2.8613281 4.0390625 C 2.8096937 4.0355311 2.7593701 4.0534086 2.7207031 4.0898438 C 2.0138478 4.7559334 1.4269452 5.5406693 0.9765625 6.4238281 C 0.95188256 6.4722868 0.94645372 6.5310414 0.9609375 6.5839844 C 0.97542128 6.6369554 1.0075314 6.6805738 1.0527344 6.7070312 L 3.0976562 7.90625 C 3.1272251 7.9235987 3.1599027 7.9316406 3.1914062 7.9316406 C 3.2600865 7.9316406 3.3260599 7.8914363 3.3613281 7.8222656 C 3.6590037 7.2385193 4.0480396 6.7199093 4.515625 6.2792969 C 4.5543704 6.2429178 4.5768101 6.1918479 4.5800781 6.1367188 C 4.5833984 6.0816457 4.5671903 6.0258269 4.5332031 5.984375 L 2.9941406 4.109375 C 2.9601534 4.0679231 2.9127534 4.0426219 2.8613281 4.0390625 z M 15.392578 7.8300781 L 13.167969 8.5761719 C 13.065615 8.610533 13.008963 8.728221 13.041016 8.8378906 C 13.200599 9.3840247 13.28125 9.9543054 13.28125 10.533203 C 13.28125 10.618433 13.279417 10.705218 13.275391 10.798828 C 13.272985 10.853957 13.291453 10.908439 13.326172 10.949219 C 13.360865 10.990026 13.409512 11.015056 13.460938 11.017578 L 15.789062 11.132812 C 15.792147 11.132953 15.793842 11.132812 15.796875 11.132812 C 15.899987 11.132812 15.985372 11.045141 15.990234 10.933594 C 15.996221 10.79472 16 10.663725 16 10.533203 C 15.999948 9.6583683 15.876911 8.7951349 15.634766 7.9667969 C 15.602661 7.8570712 15.494827 7.7956329 15.392578 7.8300781 z M 4.6132812 8.0703125 C 4.5710423 8.0755746 4.530387 8.0956522 4.4980469 8.1289062 C 4.4333143 8.1953583 4.4187411 8.300068 4.4609375 8.3847656 L 6.1816406 11.841797 C 6.1753138 11.908389 6.171875 11.977097 6.171875 12.044922 C 6.171875 12.566448 6.3611015 13.055077 6.7050781 13.423828 C 7.0490809 13.792607 7.5056999 13.996094 7.9921875 13.996094 C 8.4786751 13.996094 8.9372734 13.792551 9.28125 13.423828 C 9.6252528 13.055077 9.8144531 12.566448 9.8144531 12.044922 C 9.8144531 11.523395 9.6252266 11.032814 9.28125 10.664062 C 8.9377358 10.295807 8.4798698 10.092342 7.9941406 10.091797 L 7.9921875 10.091797 C 7.9593477 10.091841 7.9251171 10.091881 7.8925781 10.09375 L 4.7382812 8.0996094 C 4.6996796 8.0751558 4.6555202 8.0650504 4.6132812 8.0703125 z M 0.51757812 8.1367188 C 0.46787838 8.1223129 0.41382072 8.1287835 0.36914062 8.15625 C 0.32446053 8.1837165 0.29281332 8.2299238 0.27929688 8.2832031 C 0.094484939 9.013867 -7.4014868e-17 9.7705885 0 10.533203 C 0 10.663725 0.003726361 10.79472 0.009765625 10.933594 C 0.014602265 11.045169 0.099960776 11.132813 0.203125 11.132812 C 0.2061577 11.132812 0.20985792 11.132981 0.21289062 11.132812 L 2.5390625 11.017578 C 2.5904877 11.015056 2.6391873 10.989998 2.6738281 10.949219 C 2.7085212 10.908439 2.7270146 10.853957 2.7246094 10.798828 C 2.7205571 10.70519 2.71875 10.618405 2.71875 10.533203 C 2.71875 10.028157 2.7804081 9.5287432 2.9023438 9.046875 C 2.930344 8.9359441 2.869103 8.8211447 2.765625 8.7910156 L 0.51757812 8.1367188 z"/>
</svg>

<svg width="16" height="16" version="1.1" xmlns="http://www.w3.org/2000/svg">
  <defs>
    <style id="current-color-scheme" type="text/css">.ColorScheme-Text { color:#ebdbb2; } .ColorScheme-Highlight { color:#458588; }</style>
  </defs>
  <path class="ColorScheme-Text" d="m0.51918 8.1392c-0.1023-0.029639-0.20882 0.030419-0.23824 0.1465-0.1848 0.7307-0.2793 1.487-0.2793 2.25 0 0.131 0.0037 0.262 0.0098 0.401 0.0048 0.111 0.09019 0.199 0.1934 0.199 0.77861-0.03749 1.5572-0.0726 2.3358-0.11109 0.10705-0.0062 0.19046-0.10545 0.1855-0.219-4e-3 -0.094-0.0059-0.181-0.0059-0.266 0-0.505 0.0617-1.0079 0.1836-1.4899 0.028-0.111-0.0332-0.2258-0.1367-0.2559zm14.872-0.3066-2.225 0.7461c-0.102 0.0343-0.159 0.152-0.127 0.2617 0.16 0.5461 0.24 1.1199 0.24 1.6989 0 0.085-2e-3 0.172-6e-3 0.266-0.0043 0.11862 0.08281 0.21293 0.186 0.219l2.328 0.11109h8e-3c0.103 0 0.188-0.088 0.193-0.199 6e-3 -0.139 0.01-0.27 0.01-0.401 0-0.8745-0.123-1.738-0.365-2.566-0.032-0.1097-0.14-0.1712-0.242-0.1367zm-12.663-3.7403c-0.7069 0.6661-1.294 1.451-1.744 2.334-0.04882 0.095932-0.02066 0.22666 0.07614 0.2832l2.045 1.199c0.08728 0.051478 0.20849 0.024288 0.2636-0.0839 0.2977-0.5838 0.6867-1.102 1.154-1.543 0.08209-0.077009 0.08434-0.21363 0.0176-0.2949l-1.539-1.875c-0.07222-0.08841-0.1956-0.09251-0.27334-0.0194zm10.05-0.1816-1.47 1.938c-0.06728 0.087461-0.05224 0.22212 0.029 0.293 0.483 0.4209 0.888 0.9225 1.207 1.494 0.05595 0.098586 0.17446 0.13076 0.268 0.0723l2-1.281c0.09457-0.060828 0.1193-0.19153 0.066-0.2851-0.482-0.8642-1.096-1.625-1.826-2.262-0.07812-0.06816-0.20149-0.06324-0.274 0.0308zm-5.855-1.8732c-0.9335 0.1357-1.828 0.4449-2.66 0.9179-0.0948 0.0539-0.1303 0.1797-0.0801 0.2813l1.092 2.207c0.053069 0.1072 0.17565 0.13486 0.2617 0.0859 0.548-0.3115 1.137-0.5141 1.752-0.6035 0.1063-0.0154 0.1805-0.1204 0.1661-0.2343l-0.3125-2.477c-0.0144-0.1139-0.1128-0.1931-0.2188-0.1777zm1.863-0.0372c-0.10811-0.01152-0.20051 0.06897-0.2109 0.1856l-0.2266 2.486c-0.0104 0.1144 0.069 0.2175 0.1758 0.2285 0.6183 0.0642 1.214 0.243 1.771 0.5313 0.08823 0.044771 0.20912 0.012474 0.26-0.0977l1.012-2.25c0.046-0.1035 6e-3 -0.2274-0.09-0.2773-0.848-0.4378-1.754-0.7092-2.692-0.8067zm2.2935 5.9981-2.939 2.008c-0.1435-0.01141-0.2878-0.0073-0.4304 0.01227-1.094 0.1516-1.858 1.161-1.707 2.256 0.1516 1.094 1.161 1.858 2.256 1.707 1.094-0.1516 1.858-1.161 1.707-2.256-0.01145-0.07623-0.02728-0.1517-0.04748-0.2261l1.482-3.265c0.08538-0.18815-0.14621-0.3559-0.32112-0.23617z" fill="currentColor"/>
</svg>
